X:226
T: GOD SAVE OUR LORD THE KING
N: B0713
O: Europa, Mitteleuropa, England
R: National - Hymne
M: 3/4
L: 1/8
K: G
 | G2G2G2 | F3GA2 |
B2B2c2 | A3AB2 |
A2F3G | G6 |
G2G2G2 | F3GA2 |
B2B2c2 | A3AB2 |
A2F3G | G6 |
d2d2d2 | d3cB2 |
c2c2c2 | c3BA2 |
B2cBAG | B3cd2 |
e2A3G | G6

@@@ Tune index: 2444
